X:1
T:Hatikvah
T:Hatikvah
T:S. Alman
C:S. Alman
%%score { ( 1 4 ) | ( 2 3 ) }
L:1/8
Q:1/4=100
M:2/4
K:G
V:1 treble nm="Piano" snm="Pno."
V:4 treble 
V:2 bass 
V:3 bass 
V:1
!f! E[B,F] [EG][FA] | B2 B2 | ([Fc][GB] [Ac][Fe]) | B4 | A2 AA | G2 G2 | [^DF][^CE] [DF][B,G] | %7
 [B,E]3 B, | [CE][^DF] ([EG][FA]) | B2 B2 | [Fc][GB] [Ac][Fe] | B4 | [EA]2 [EA][EA] | G2 G2 | %14
 [^DF][^CE] [DF][B,G] | [B,E]4 | E2 [EBe]2 | [EAe]2 [E^Ge]2 | de dc | B4 | E2 [EAe]2 | %21
 [EGe]2 [EBe]2 | [Ad][ce] [Bd][Ac] | [GB]4 | A2 AA | G2 G2 | [EA][FB] [Gc][Ad] | [GB]4 | A2 A2 | %29
 G2 G2 | FE FG | E4 | A2 AA | G2 G2 | [EA][FB] [Gc][Ad] | [GB]4 | [EA]2 [EA]2 | G2 G2 | %38
 [^DF][^CE] [DF][B,G] | !fermata![B,E]4 |] %40
V:2
 G,A, B,C | B,2 B,2 | A,2 A,2 | B,2- B,2 | E,2 E,E, | E,2 E,2 | A,2 A,2 | G,3 E, | %8
 [A,,E,]2 [A,C]2 | B,2 B,2 | A,2 D2 | D4 | C2 CC | B,2 B,2 | A,2 A,2 | G,4 | E,2 [D,^G,]2 | %17
 [C,A,]2 [B,,B,]2 | A,,2 F,,2 | B,,A, G,F, | [G,B,]2 [F,D]2 | CB, A,G, | [F,A,]2 [D,D]2 | D4 | %24
 [C,C]2 [C,C]2 | [G,B,]2 [G,B,]2 | [D,C]2 [D,D]2 | D4 | [^C,A,]2 [=C,F,]2 | [B,,G,]2 [^A,,G,]2 | %30
 [B,,A,]2 [B,,A,]2 | G,4 | [C,C]2 [C,C]2 | B,2 B,2 | [D,C]2 [D,D]2 | D4 | A,2 C2 | B,2 B,2 | %38
 A,2 A,2 | G,4 |] %40
V:3
 E,4 | E,2 E,2 | E,2 E,2 | E,2- E,2 | A,,2 A,,A,, | ^A,,2 A,,2 | B,,2 B,,2 | E,D, C,B,, | x4 | %9
 E,2 E,2 | D,2 D,2 | G,4 | A,F, G,A, | B,2 B,2 | B,,2 B,,2 | E,4 | x4 | x4 | x4 | x4 | x4 | x4 | %22
 x4 | G,F, E,D, | x4 | x4 | x4 | G,F, E,D, | x4 | x4 | x4 | E,F, E,D, | x4 | G,2 G,2 | x4 | %35
 G,F, E,D, | C,F,, G,,A,, | B,,2 B,,2 | B,,2 B,,2 | !fermata!E,4 |] %40
V:4
 x4 | GF GE | x4 | (GF GE) | CE CE | ^CE CE | x4 | x4 | x4 | GF GE | x4 | GD E=F | x4 | EG FE | %14
 x4 | x4 | x4 | x4 | [E^G]2 [EA]2 | [^DF]4 | x4 | x4 | x4 | x4 | EG FE | DF ED | x4 | x4 | EG FE | %29
 DB, ED | ^C2 ^D2 | E4 | EG FE | DF ED | x4 | x4 | x4 | EG FE | x4 | x4 |] %40

